X: 14247
T: Further, The Deeper, The
R: jig
M: 6/8
K: Amixolydian
|:~e3 edB|dBA A2g|ded d{c}BA|BAG G2g|
fed efg|aAA e2a|gge dB/c/d|1 eAG AB/c/d:|2 eAG Ace||
|:a2a efg|aba e2a|~g3 def|~g3 d2g|
fed efg|aAA e2a|gge dB/c/d|1 eAG Ace:|2 eAG AB/c/d||

